X: 253
T: Michael McGoldrick's
M:6/8
C:Michael McGoldrick
R:Jig
L:1/8
K:D
"D"~f3 "A"efg|"D"fdA "G"GFE|"D"FAd "G"GBd|"D"FAd "A"cde|
"D"~f3 "A"efg|"D"fdA "G"GFE|"D"FAd "G"GBd|1 "A"Adc "D"d2e:|2 Adc d2c||
"Bm"~B3 BAF|~f3 fec|"A"e2e fec|Ace fec|
"Bm"~B3 BAF|~f3 fec|1"A" e2e fec|BcA "Bm"B2A:|2 "A" e2e "D"fef|"G"gfg "A" a2g|]


